X:1
T:8 Lieder und Gesänge, Op.58
T:O komme, holde Sommernacht
T:4. O komme, holde Sommernacht
T:Johannes Brahms
T:Melchior Grohe
T:8 Lieder und Gesänge, Op.58
T:Creative Commons copyright waiver (CC0 1.0 Universal) 
T:Creative Commons copyright waiver (CC0 1.0 Universal) 
T:Creative Commons copyright waiver (CC0 1.0 Universal) 
C:Johannes Brahms
Z:Melchior Grohe
Z:Creative Commons copyright waiver (CC0 1.0 Universal)
Z:
L:1/8
M:4/4
K:F#
V:1 treble nm="Singstimme\nVoice"
V:1
 z2 | z4 z2 C2 | F3 G A2 C2 | A3 G c2 G2 | d8 | c4 z2 A2 | G3 A G2 d2 | c3 A G2 d2 | c8 | %9
w: |O|kom- me, hol- de|Som- mer nacht, ver-|schwie-|gen; dich|hat die Lie- be|recht ge- macht zum|Sie-|
 C4 z2 C2 | F3 G A2 C2 | A3 G c2 G2 | d8 | c4 z2 A2 | G3 A G2 d2 | c3 A G2 d2 | c8 | C2 z2 z2 C2 | %18
w: gen! O|kom- me, hol- de|Som- mer nacht, ver-|schwie-|gen; dich|hat die Lie- be|recht ge- macht zum|Sie-|gen! Da|
 B3 B B2 =A2 | c3 c c2 B2 | (=d4- dcBc) | =d2 z2 z2 =D2 | =c3 c c2 B2 | (=e=d) (BG) A2 B2 | ^c8- | %25
w: bre- chen man- che|Knos- pen los, ver-|stoh- * * * *|len, da|öff- nen ih- ren|sü- * ssen * Schoss Vi-|o-|
 c4 F2 F2 | B3 c d2 F2 | d3 c f2 c2 | =e8 | d2 z2 =d4 | c3 A G2 ^B2 | c3 A G2 d2 | f8 | c2 z2 c4 | %34
w: * len, da|neigt ihr Haupt im|Däm- mer- schein die|Ro-|se, da|wird mein Lieb- chen|auch noch mein, das|lo-|se, das|
 f8- | f4 F2 z2 | z8 | z8 | z4 z2 |] %39
w: lo-|* se!||||

